images/svg/icon4.svg

<svg width="72" height="72" viewBox="0 0 72 72" fill="none" xmlns="http://www.w3.org/2000/svg">
<circle cx="36" cy="36" r="36" fill="url(#paint0_linear_38_517)"/>
<g clip-path="url(#clip0_38_517)">
<path d="M26.8203 26.8203V32.0986H32.0986V26.8203H26.8203ZM33.3608 26.8203V32.0986H38.6392V26.8203H33.3608ZM39.9014 26.8203V32.0986H45.1797V26.8203H39.9014ZM26.8203 33.3608V38.6392H32.0986V33.3608H26.8203ZM33.3608 33.3608V38.6392H38.6392V33.3608H33.3608ZM39.9014 33.3608V38.6392H45.1797V33.3608H39.9014ZM26.8203 39.9014V45.1797H32.0986V39.9014H26.8203ZM33.3608 39.9014V45.1797H38.6392V39.9014H33.3608ZM39.9014 39.9014V45.1797H45.1797V39.9014H39.9014Z" fill="white"/>
</g>
<defs>
<linearGradient id="paint0_linear_38_517" x1="36" y1="0" x2="36" y2="72" gradientUnits="userSpaceOnUse">
<stop stop-color="#7B94F1"/>
<stop offset="0.51" stop-color="#6583FF"/>
<stop offset="1" stop-color="#C499FF"/>
</linearGradient>
<clipPath id="clip0_38_517">
<rect width="20" height="20" fill="white" transform="translate(26 26)"/>
</clipPath>
</defs>
</svg>

<svg xmlns="http://www.w3.org/2000/svg" width="72" height="72" fill="none"><circle cx="36" cy="36" r="36" fill="url(#a)"/><g clip-path="url(#b)"><path fill="#fff" d="M26.82 26.82V32.1H32.1V26.82H26.82Zm6.54 0V32.1h5.28V26.82h-5.28Zm6.541 0V32.1h5.279V26.82H39.9Zm-13.08 6.54v5.28h5.278v-5.28H26.82Zm6.54 0v5.28h5.278v-5.28h-5.278Zm6.54 0v5.28h5.279v-5.28H39.9Zm-13.08 6.541v5.279h5.278V39.9H26.82Zm6.54 0v5.279h5.278V39.9h-5.278Zm6.54 0v5.279h5.279V39.9H39.9Z"/></g><defs><linearGradient id="a" x1="36" x2="36" y1="0" y2="72" gradientUnits="userSpaceOnUse"><stop stop-color="#7B94F1"/><stop offset=".51" stop-color="#6583FF"/><stop offset="1" stop-color="#C499FF"/></linearGradient><clipPath id="b"><path fill="#fff" d="M26 26h20v20H26z"/></clipPath></defs></svg>
